X: 138
T:An Dro
M:2/2
L:1/8
Q:250
K:Gm
G2 d2 d2 de | c2 cd B4 | ABcA B2 A2 |
ABcA B2 G2 |G2 d2 d2 de | c2 cd B4 |
ABcA B2 G2 | BGAF G4 :||
ABcA B2 G2 | GFGA B2 A2 |ABcA B2 G2 |
GFGA G4 :||
